X:1
T:Wer Gott nicht mit uns
T:Martin Luther
T:Ps 124
T:Source : Harmonia-Canticum Ecclesiasticarum---Leipzig---F.Schnelboltz---1597. Editor : André Vierendeels (26/01/15).
T:Wer Gott nicht mit uns
C:Martin Luther
%%score [ 1 2 3 4 ]
L:1/8
Q:1/4=120
M:2/2
K:F
V:1 treble nm="Cantus" snm="C"
V:2 treble nm="Altus" snm="A"
V:3 treble-8 nm="Tenor" snm="T"
V:4 bass nm="Bassus" snm="B"
V:1
 A4 c2 c2 | d2 e2 d2 c2 | d2 d2 c2 A2 | c2 e2 dc d2 |[M:2/4] c4 |[M:2/2] A4 c2 c2 | d2 e2 d2 c2 | %7
w: Wer Gott nicht|mit uns die- se|Zeit, so soll Is-|ra- el sa- * *|gen,|wer Gott nicht|mit uns die- se|
w: Auff uns ist|so zor- nig ihr|sinn, wo Gott hett|es das zu _ ge-|ben,|ver- schlun- gen|het- ten sie uns|
w: Gott lob und|danck der nicht zu|gab, dasz ihr schlund|uns möcht- fan- * *|gen,|wie ein Vo-|gel desz stricks kömpt|
 d2 d2 c2 A2 | c2 e2 dc d2 | c2 d2 e2 d2 | B2 c2 d2 c2 | A2 A2 d2 c2 | d2 e2 c2 B2 | G2 G2 c2 d2 | %14
w: Zeit, wir het- ten|müs- sen ver- * sa-|gen, die so ein|ar- mes heuff- lein|sind, ver- acht von|so viel Men- schen|Kind, die an uns-|
w: hin, mit gan- zem|leib und le- * *|ben, wir wern als|die ein fluth er-|seufft, und ü- ber|die gros Was- ser|leufft, und mit ge-|
w: ab, ist un- ser|Seel ent- gan- * *|gen, srtrick ist ent-|wey- und wir sind|frey, desz Her- ren|Na- men steht uns|bey, desz Gotts Him-|
 e2 c2 BA B2 | A8 |] %16
w: set- zen al- * *|le.|
w: walt ver- schwem- * *|met.|
w: mels und Er- * *|den.|
V:2
 E4 F2 G2 | A2 c2 A2 A2 | A2 A2 A2 F2 | G2 c2 BA B2 |[M:2/4] c4 |[M:2/2] E4 F2 G2 | A2 c2 A2 A2 | %7
w: Wer Gott nicht|mit uns die- se|Zeit, so soll Is-|ra- el sa- * *|gen,|wer Gott nicht|mit uns die- se|
w: Auff uns ist|so zor- nig ihr|sinn, wo Gott hett|es das zu _ ge-|ben,|ver- schlun- gen|het- ten sie uns|
w: Gott lob und|danck der nicht zu|gab, dasz ihr schlund|uns möcht fan- * *|gen,|wie ein Vo-|gel desz stricks kömpt|
 A2 A2 A2 F2 | G2 c2 BA B2 | c2 B2 c2 A2 | E2 A2 G2 A2 | A2 F2 A2 A2 | A2 c2 A2 G2 | G2 E2 G2 A2 | %14
w: Zeit, wir het- ten|müs- sen ver- * sa-|gen, die so ein|ar- mes heuff- lein|sind, ver- acht von|so viel Men- schen|Kind, die an uns|
w: hin, mit gan- zem|leib und le- * *|ben, wir wern als|die ein fluth er-|seufft, und ü- ber|die gros Was- ser|leufft, und- mit ge-|
w: ab, ist un- ser|Seel ent- gan- * *|gen, strick ist ent-|wey und wir sind|frey, desz Her- ren|Na- men steht uns|bey, desz Gotts Him-|
 B2 A2 ^G A2 G | A8 |] %16
w: set- zen al- * *|le.|
w: walt ver- schwem- * *|met.|
w: mels und Er- * *|den.|
V:3
 A4 A2 e2 | f2 g2 f2 e2 | f2 f2 f2 f2 | e2 g2 ge g2 |[M:2/4] g4 |[M:2/2] A4 A2 e2 | f2 g2 f2 e2 | %7
w: Wer Gott nicht|mit uns die- se|Zeit, so soll Is-|ra- el sa- * *|gen,|wer Gott nicht|mit uns die- se|
w: Auff uns ist|so zor- nig ihr|sinn, wo Gott hett|es das zu _ ge-|ben,|ver- schlun- gen|het- ten sie uns|
w: lob und danck|der nicht zu gab,|dasz ihr schlund uns|möcht fan- gen, * *|wie|ein Vo- gel|dezsz stricks kömpt ab,|
 f2 f2 f2 f2 | e2 g2 ge g2 | g2 g2 g2 ^f2 | g2 e2 d2 e2 | ^f2 d2 =f2 e2 | f2 g2 f2 d2 | %13
w: Zeit, wir het- ten|müs- sen ver- * sa-|gen, die so ein|ar- mes heuff- lein|sind, ver- acht von|so viel Men- schen|
w: hin, mit gan- zem|leib und le- * *|ben, wir wern als|die ein fluth er-|seufft, und ü- ber|die gros Was- ser|
w: ist un- ser Seel|ent- gan- gen, * *|strick ist ent- wey|und wir sind frey,|desz Her- ren Na-|men steht uns bey,|
 e2 c2 e2 f2 | g2 e2 ec e2 | e8 |] %16
w: Kind, die an uns|set- zen al- * *|le.|
w: leufft, und mit ge-|walt ver- schwem- * *|met.|
w: desz Gotts Him- mels|und Er- den. * *|Gott|
V:4
 A,4 F,2 E,2 | D,2 C,2 D,2 A,2 | D,2 D,2 F,2 F,2 | C,2 C2 G,A, G,2 |[M:2/4] C,4 | %5
w: Wer Gott nicht|mit uns die- se|Zeit, so soll Is-|ra- el sa- * *|gen,|
w: Auff uns ist|so zor- nig ihr|sinn, wo Gott hett|es das zu _ ge-|ben,|
w: lob und danck|der nicht zu gab,|dasz ihr schlund uns|möcht fan- gen, * *|wie|
[M:2/2] A,4 F,2 E,2 | D,2 C,2 D,2 A,2 | D,2 D,2 F,2 F,2 | C,2 C2 G,A, G,2 | C,2 G,2 C2 D2 | %10
w: wer Gotte nicht|mit uns die- se|Zeit, wir het- ten|müs- sen ver- * sa-|gen, die so ein|
w: ver- schlun- gen|het- ten sie uns|hin, mit gan- zem|leib und le- * *|ben, wir wern als|
w: ein Vo- gel|desz stricks kömpt ab,|ist un- ser Seel|ent- gan- gen, * *|strick ist ent- wey|
 G,2 A,2 B,2 A,2 | D,2 D,2 D2 A,2 | D,2 C,2 F,2 G,2 | C,2 C,2 C,2 F,2 | E,2 A,2 E,F, E,2 | A,,8 |] %16
w: ar- mes heuff- lein|sind, ver- acht von|so viel Men- schen|Kind, die an uns|set- zen al- * *|le.|
w: die ein fluth er-|seufft, und ü- ber|die gros Was- ser|leufft, und mit ge-|walt ver- schwem- * *|met.|
w: und wir sind frey,|desz Her- ren Na-|men steht uns bey,|desz Gotts Him- mels|und Er- den * *||

